X:4945
T:Polska fran Hrjedalen
A:Hrjedalen
M:3/4
O:Sweden
R:Polska
Z:Carol Turner
%%TUNEURL: http://www.leeds.ac.uk/music/Info/RRTuneBk/gettune/00000eee.html
%%ID:00000eee
K:D
Ad (3faf g>e|c>d (3ege f>a|(3geg (3fed e>c| d>e fe/2d/2 c>e|\
Ad (3faf g>e|c>d (3ege f>a|(3geg (3fed e>c| (3def d4::\
A2G2F>F|E>C (3DFD A,2|(3A2E2C2 D>F|(3ECE (3FDF (3ECE|\
A2G2F>F|E>C (3DFD A,2|(3A2E2C2 D>F|(3ECE D4:|
